!!!!SEGMENT: T337_Bar-w32p16-17m4-1h14m1-5.krn
!!!COM: Bartók, Béla
!!!OTL: I: Allegro moderato
!!!OMV: I: Allegro moderato
!!!example: 337
!!!work: Bar-32
!!!AGN-sub: Concerto
!!!OPR: Piano Concerto No. 1
!!!filename: T337_Bar-w32p16-17m4-1h14m1-5.krn
**kern	**dynam	**kern	**dynam	**kern	**dynam	**kern	**dynam	**kern	**dynam	**kern	**dynam	**kern	**dynam	**kern	**dynam	**kern	**dynam	**kern	**dynam	**kern	**dynam	**kern	**dynam
*grp:A	*	*grp:A	*	*grp:A	*	*grp:A	*	*grp:B	*	*grp:B	*	*grp:A	*	*grp:B	*	*grp:A	*	*grp:B	*	*grp:B	*	*grp:B	*
*part11	*	*part10	*	*part9	*	*part8	*	*part7	*	*part7	*	*part6	*	*part5	*	*part4	*	*part3	*	*part2	*	*part1	*
*staff12	*	*staff11	*	*staff10	*	*staff9	*	*staff8	*	*staff7	*	*staff6	*	*staff5	*	*staff4	*	*staff3	*	*staff2	*	*staff1	*
*ICstr	*	*ICstr	*	*ICstr	*	*ICstr	*	*ICklav	*	*ICklav	*	*ICbras	*	*ICww	*	*ICww	*	*ICww	*	*ICww	*	*ICww	*
*Icello	*	*Iviola	*	*Ivioln	*	*Ivioln	*	*Ipiano	*	*Ipiano	*	*Icor	*	*Ifagot	*	*Iclars	*	*Ioboe	*	*Iflt	*	*Ipicco	*
*I"Violoncello	*	*I"Viola	*	*I"Violin II	*	*I"Violin I	*	*I"Piano	*	*I"Piano	*	*I"Horn in F	*	*I"Bassoon	*	*I"Clarinet in Bb	*	*I"Oboe	*	*I"Flute	*	*I"Piccolo	*
*I'vc	*	*I'vla	*	*I'vn	*	*I'vn	*	*I'pf	*	*I'pf	*	*I'cor-fr	*	*I'bn	*	*I'cl	*	*I'ob	*	*I'fl	*	*I'picc	*
*clefF4	*	*clefC3	*	*clefG2	*	*clefG2	*	*clefG2	*	*clefG2	*	*clefG2	*	*clefC4	*	*clefG2	*	*clefG2	*	*clefG2	*	*clefG2	*
*k[]	*	*k[]	*	*k[]	*	*k[]	*	*k[]	*	*k[]	*	*ITrd4c7	*	*k[]	*	*k[0]	*	*k[]	*	*k[]	*	*k[]	*
*	*	*	*	*	*	*	*	*	*	*	*	*	*	*	*	*ITrd1c2	*	*	*	*	*	*ITrd-7c-12	*
!!LO:TX:tempo:a:t=[Allegro]\n[[quarter]=116]
*M3/4	*	*M3/4	*	*M3/4	*	*M3/4	*	*M3/4	*	*M3/4	*	*M3/4	*	*M3/4	*	*M3/4	*	*M3/4	*	*M3/4	*	*M3/4	*
*MM121	*	*MM121	*	*MM121	*	*MM121	*	*MM121	*	*MM121	*	*MM121	*	*MM121	*	*MM121	*	*MM121	*	*MM121	*	*MM121	*
=117	=117	=117	=117	=117	=117	=117	=117	=117	=117	=117	=117	=117	=117	=117	=117	=117	=117	=117	=117	=117	=117	=117	=117
!	!	!	!	!	!	!LO:TX:t=P:problem: Cross-Measure Hanging Beams	!	!	!	!	!	!	!	!	!	!	!	!	!	!	!	!	!
!	!	!	!	!LO:TX:t=P:problem: Cross-Measure Hanging Beams	!	!	!	!	!	!	!	!	!	!	!	!	!	!	!	!	!	!	!
!	!	!LO:TX:t=P:problem: Cross-Measure Hanging Beams	!	!	!	!	!	!	!	!	!	!	!	!	!	!	!	!	!	!	!	!	!
!LO:TX:t=P:problem: Cross-Measure Hanging Beams	!	!	!	!	!	!	!	!	!	!	!	!	!	!	!	!	!	!	!	!	!	!	!
!	!	!	!	!	!	!	!	!	!	!	!	!	!	!	!	!	!	!	!	!	!	!	!
8F#X'J	.	8A#X'J	.	8e'	.	8g'	.	2.ryy	.	16d<^^LL 16dd<	.	2.r	.	4r	.	8r	.	4r	.	4r	.	4r	.
.	.	.	.	.	.	.	.	.	.	\16dd 16ddd	.	.	.	.	.	.	.	.	.	.	.	.	.
8G#X'^L	.	8B'^L	.	8e'	.	8g'	.	.	.	16d< 16dd<	.	.	.	.	.	8G#X' 8BnX	.	.	.	.	.	.	.
.	.	.	.	.	.	.	.	.	.	16dd 16ddd	.	.	.	.	.	.	.	.	.	.	.	.	.
8F#'	.	8A#'	.	8e'J	.	8g'J	.	.	.	16d< 16dd<	.	.	.	4r	.	8r	.	(16fLL	.	(16ffLL	.	(16ffLL	.
.	.	.	.	.	.	.	.	.	.	16dd 16ddd	.	.	.	.	.	.	.	16eJ	.	16eeJ	.	16eeJ	.
8F#'	.	8A#'	.	8f'^L	.	8a'^L	.	.	.	16d< 16dd<	.	.	.	.	.	8f' 8a	.	8dJ)	.	8ddJ)	.	8ddJ)	.
.	.	.	.	.	.	.	.	.	.	16dd 16ddd	.	.	.	.	.	.	.	.	.	.	.	.	.
8F#'J	.	8A#'J	.	8e'	.	8g'	.	.	.	16d< 16dd<	.	.	.	(16fLL	.	8r	.	(/16ffLL	.	(16fffLL	.	(16fffLL	.
.	.	.	.	.	.	.	.	.	.	16dd 16ddd	.	.	.	16eJ	.	.	.	16eeJ	.	16eeeJ	.	16eeeJ	.
8G#'^L	.	8B'^L	.	8e'	.	8g'	.	.	.	16d< 16dd<	.	.	.	8dJ)	.	8G#' 8B	.	8ddJ)	.	8dddJ)	.	8dddJ)	.
.	.	.	.	.	.	.	.	.	.	16ddJJ 16ddd	.	.	.	.	.	.	.	.	.	.	.	.	.
=118	=118	=118	=118	=118	=118	=118	=118	=118	=118	=118	=118	=118	=118	=118	=118	=118	=118	=118	=118	=118	=118	=118	=118
8F#X'	.	8A#X'	.	8e'J	.	8g'J	.	16fLL	.	16ff 16fffLL	.	2.r	.	2.r	.	8r	.	2.r	.	2.r	.	2.r	.
.	.	.	.	.	.	.	.	16e	.	16eee	.	.	.	.	.	.	.	.	.	.	.	.	.
8F#'	.	8A#'	.	8f'^L	.	8a'^L	.	16d	.	16ddd	.	.	.	.	.	8f' 8a	.	.	.	.	.	.	.
.	.	.	.	.	.	.	.	16c#XJJ	.	16ccc#XJJ	.	.	.	.	.	.	.	.	.	.	.	.	.
8F#'J	.	8A#'J	.	8e'	.	8g'	.	16BLL	.	16bbLL	.	.	.	.	.	8r	.	.	.	.	.	.	.
.	.	.	.	.	.	.	.	16e	.	16ee 16eee	.	.	.	.	.	.	.	.	.	.	.	.	.
8G#X'^L	.	8B'^L	.	8e'	.	8g'	.	16d	.	16ddd	.	.	.	.	.	8G#X' 8BnX	.	.	.	.	.	.	.
.	.	.	.	.	.	.	.	16c#JJ	.	16ccc#JJ	.	.	.	.	.	.	.	.	.	.	.	.	.
8F#'	.	8A#'	.	8e'	.	8g'	.	16BLL	.	8bbLL	<	.	.	.	.	4r	.	.	.	.	.	.	.
.	.	.	.	.	.	.	.	16b	.	.	.	.	.	.	.	.	.	.	.	.	.	.	.
8F#'	.	8A#'	.	8e'	.	8g'	.	16dd	.	16ddd	.	.	.	.	.	.	.	.	.	.	.	.	.
.	.	.	.	.	.	.	.	16cc#XJJ	.	16ccc#JJ	.	.	.	.	.	.	.	.	.	.	.	.	.
=119	=119	=119	=119	=119	=119	=119	=119	=119	=119	=119	=119	=119	=119	=119	=119	=119	=119	=119	=119	=119	=119	=119	=119
*M5/8	*	*M5/8	*	*M5/8	*	*M5/8	*	*M5/8	*	*M5/8	*	*M5/8	*	*M5/8	*	*M5/8	*	*M5/8	*	*M5/8	*	*M5/8	*
8F#X'	.	8A#X'	.	8e'J	.	8g'J	.	4b	.	4bb	[ sf	3...r	.	4r	.	8r	.	4r	.	4r	.	4r	.
8F#'	.	8A#'	.	8f'^L	.	8a'^L	.	.	.	.	.	.	.	.	.	8f' 8a	.	.	.	.	.	.	.
8F#'	.	8A#'	.	8e'	.	8g'	.	8r	.	8r	.	.	.	(16dLL	.	8r	.	/(>16ddLL	.	8r	.	8r	.
.	.	.	.	.	.	.	.	.	.	.	.	.	.	16c#XJJ	.	.	.	16cc#X	.	.	.	.	.
8F#'J	.	8A#'J	.	8e'	.	8g'	.	4r	.	4r	.	.	.	8B)	.	8A#X' 8c#X	.	8bJJ)	.	8r	.	8r	.
8G#X'^L	.	8B'^L	.	8e'	.	8g'	.	.	.	.	.	.	.	8r	.	8r	.	(16ddL 16ddd	.	(16dddLL	.	(16ddddLL	.
.	.	.	.	.	.	.	.	.	.	.	.	.	.	.	.	.	.	16cc# 16ccc#X	.	16ccc#X	.	16cccc#X	.
=120	=120	=120	=120	=120	=120	=120	=120	=120	=120	=120	=120	=120	=120	=120	=120	=120	=120	=120	=120	=120	=120	=120	=120
*M2/4	*	*M2/4	*	*M2/4	*	*M2/4	*	*M2/4	*	*M2/4	*	*M2/4	*	*M2/4	*	*M2/4	*	*M2/4	*	*M2/4	*	*M2/4	*
*grp:A	*	*grp:A	*	*grp:A	*	*grp:A	*	*grp:B	*	*grp:B	*	*grp:A	*	*grp:A	*	*grp:A	*	*grp:B	*	*grp:B	*	*grp:B	*
8F#X'	.	8A#X'	.	8e'J	.	8g'J	.	2r	.	2r	.	2r	.	8r	.	8r	.	8bJJ) 8bb	sf	8bbJJ)	sf	8bbbJJ)	sf
*	*	*	*	*	*	*	*	*	*	*	*	*	*	*grp:A	*	*	*	*	*	*	*	*	*
8F#'	.	8A#'	.	8f'^L	.	8a'^L	.	.	.	.	.	.	.	8f' 8a	mf	8f' 8a	mf	8r	.	8r	.	8r	.
8F#'J	.	8A#'J	.	8d'	.	8f'	.	.	.	.	.	.	.	8r	.	8r	.	4r	.	4r	.	4r	.
*	*	*	*	*	*	*	*	*	*	*	*	*	*	*clefF4	*	*	*	*	*	*	*	*	*
8E'^L	.	8G#X'^L	.	8d'	.	8f'	.	.	.	.	.	.	.	8E' 8G#X	.	8En' 8G#X	.	.	.	.	.	.	.
!!LO:REH:t=14
=121	=121	=121	=121	=121	=121	=121	=121	=121	=121	=121	=121	=121	=121	=121	=121	=121	=121	=121	=121	=121	=121	=121	=121
*M3/4	*	*M3/4	*	*M3/4	*	*M3/4	*	*M3/4	*	*M3/4	*	*M3/4	*	*M3/4	*	*M3/4	*	*M3/4	*	*M3/4	*	*M3/4	*
8E'J	.	8G#X'J	.	8d'	.	8f'	.	16fLL	.	16ff 16fffLL	.	2.r	.	2.r	.	8r	.	2.r	.	2.r	.	2.r	.
.	.	.	.	.	.	.	.	16e-X	.	16eee-X	.	.	.	.	.	.	.	.	.	.	.	.	.
8F#X'^L	.	8A#X'^L	.	8d'	.	8f'	.	16d	.	16ddd	.	.	.	.	.	8G-X' 8B-X	p	.	.	.	.	.	.
.	.	.	.	.	.	.	.	16cJJ	.	16cccJJ	.	.	.	.	.	.	.	.	.	.	.	.	.
8E'	.	8G#'	.	8d'J	.	8f'J	.	16BLL	.	16bbLL	.	.	.	.	.	8r	.	.	.	.	.	.	.
.	.	.	.	.	.	.	.	16A	.	16aa	.	.	.	.	.	.	.	.	.	.	.	.	.
8E'	.	8G#'	.	8e'^L	.	8g'^L	.	16e-	.	16ee-X 16eee-	.	.	.	.	.	8e-y' 8gn	.	.	.	.	.	.	.
.	.	.	.	.	.	.	.	16dJJ	.	16dddJJ	.	.	.	.	.	.	.	.	.	.	.	.	.
8E'	.	8G#'	.	8d'	.	8f'	.	16cLL	.	16cccLL	.	.	.	.	.	4r	.	.	.	.	.	.	.
.	.	.	.	.	.	.	.	16B	.	16bb	.	.	.	.	.	.	.	.	.	.	.	.	.
8E'J	.	8G#'J	.	8d'	.	8f'	.	16A	.	16aa	.	.	.	.	.	.	.	.	.	.	.	.	.
.	.	.	.	.	.	.	.	16dJJ	.	16dd 16dddJJ	.	.	.	.	.	.	.	.	.	.	.	.	.
=122	=122	=122	=122	=122	=122	=122	=122	=122	=122	=122	=122	=122	=122	=122	=122	=122	=122	=122	=122	=122	=122	=122	=122
*M5/8	*	*M5/8	*	*M5/8	*	*M5/8	*	*M5/8	*	*M5/8	*	*M5/8	*	*M5/8	*	*M5/8	*	*M5/8	*	*M5/8	*	*M5/8	*
*grp:A	*	*grp:A	*	*grp:A	*	*grp:A	*	*grp:B	*	*grp:B	*	*grp:A	*	*grp:B	*	*grp:B	*	*grp:B	*	*grp:B	*	*grp:B	*
8F#X'^L	.	8A#X'^L	.	8d'	.	8f'	.	16cLL	.	16cccLL	.	3...r	.	4r	.	8G-X' 8B-y	.	4r	.	4r	.	4r	.
.	.	.	.	.	.	.	.	16B	.	16bb	.	.	.	.	.	.	.	.	.	.	.	.	.
8E'	.	8G#X'	.	8d'	.	8f'	.	16A	.	16aa	.	.	.	.	.	8r	.	.	.	.	.	.	.
.	.	.	.	.	.	.	.	16cJJ	.	16cc 16cccJJ	.	.	.	.	.	.	.	.	.	.	.	.	.
8E'	.	8G#'	.	8d'J	.	8f'J	.	16BLL	.	16bbLL	.	.	.	8r	.	8r	.	8r	.	8r	.	8r	.
.	.	.	.	.	.	.	.	16AJJ	.	16aaJJ	.	.	.	.	.	.	.	.	.	.	.	.	.
8E'	.	8G#'	.	8e-X'^L	.	8g'^L	.	8r	.	8r	.	.	.	16r	.	8e-y' 8gn	.	16e-X' 16g	mf	8r	.	8r	.
.	.	.	.	.	.	.	.	.	.	.	.	.	.	(/16cLL	f	.	.	(/16ccLL	f	.	.	.	.
8E'J	.	8G#'J	.	8c'	.	8e-X'	.	8r	.	8r	.	.	.	16B	.	(16ccLL 16ccc	.	16b	.	(16cccLL	ff	(16ccccLL	f
.	.	.	.	.	.	.	.	.	.	.	.	.	.	16AJJ)	.	16bn 16bbn	.	16aJJ)	.	16bb	.	16bbb	.
=123	=123	=123	=123	=123	=123	=123	=123	=123	=123	=123	=123	=123	=123	=123	=123	=123	=123	=123	=123	=123	=123	=123	=123
*M3/4	*	*M3/4	*	*M3/4	*	*M3/4	*	*M3/4	*	*M3/4	*	*M3/4	*	*M3/4	*	*M3/4	*	*M3/4	*	*M3/4	*	*M3/4	*
*grp:A	*	*grp:A	*	*grp:A	*	*grp:A	*	*grp:B	*	*grp:B	*	*grp:A	*	*grp:A	*	*grp:B	*	*grp:B	*	*grp:B	*	*grp:B	*
8D'^L	.	8F#X'^L	.	8c'	.	8e-X'	.	4r	.	4r	.	8D' 8F#X	p	8D' 8F#X	mf	8aJJ) 8aa	.	2.r	.	8aaJJ)	.	8aaaJJ)	.
8D'	.	8F#'	.	8c'	.	8e-'	.	.	.	.	.	8r	.	8r	.	8r	.	.	.	8r	.	8r	.
8D'J	.	8F#'J	.	8c'	.	8e-'	.	16fLL	.	16ff 16fffLL	.	4r	.	8r	.	4r	.	.	.	4r	.	4r	.
.	.	.	.	.	.	.	.	16e-X	.	16eee-X	.	.	.	.	.	.	.	.	.	.	.	.	.
8E'^L	.	8G#X'^L	.	8c'	.	8e-'	.	16d-X	.	16ddd-X	.	.	.	8E' 8G#X	p	.	.	.	.	.	.	.	.
.	.	.	.	.	.	.	.	16cJJ	.	16cccJJ	.	.	.	.	.	.	.	.	.	.	.	.	.
8D'	.	8F#'	.	8c'J	.	8e-'J	.	16B-XLL	.	16bb-XLL	.	4r	.	8r	.	8r	.	.	.	4r	.	4r	.
.	.	.	.	.	.	.	.	16A	.	16aa	.	.	.	.	.	.	.	.	.	.	.	.	.
8D'	.	8F#'	.	8d-X'^L	.	8f'^L	.	16G	.	16gg	.	.	.	8c#X 8fn	.	8d-X' 8f	p	.	.	.	.	.	.
.	.	.	.	.	.	.	.	16e-JJ	.	16ee-X 16eee-JJ	.	.	.	.	.	.	.	.	.	.	.	.	.
=124	=124	=124	=124	=124	=124	=124	=124	=124	=124	=124	=124	=124	=124	=124	=124	=124	=124	=124	=124	=124	=124	=124	=124
8D'J	.	8F#X'J	.	8B-X'	.	8d-X'	.	16d-XLL	.	16ddd-XLL	.	8r	.	8r	.	4r	.	2.r	.	2.r	.	2.r	.
.	.	.	.	.	.	.	.	16c	.	16ccc	.	.	.	.	.	.	.	.	.	.	.	.	.
8C'^L	.	8E'^L	.	8B-'	.	8d-'	.	16B-X	.	16bb-X	.	8C' 8E	.	8Cn' 8E	.	.	.	.	.	.	.	.	.
.	.	.	.	.	.	.	.	16AJJ	.	16aaJJ	.	.	.	.	.	.	.	.	.	.	.	.	.
8C'J	.	8E'J	.	8B-'	.	8d-'	.	16GLL	.	16ggLL	.	4r	.	8r	.	4r	.	.	.	.	.	.	.
.	.	.	.	.	.	.	.	16d-X	.	16dd-X 16ddd-X	.	.	.	.	.	.	.	.	.	.	.	.	.
8D'^L	.	8Fn'^L	.	8B-'	.	8d-'	.	16c	.	16ccc	.	.	.	8D' 8Fn	p	.	.	.	.	.	.	.	.
.	.	.	.	.	.	.	.	16B-JJ	.	16bb-JJ	.	.	.	.	.	.	.	.	.	.	.	.	.
8C'	.	8E'	.	8B-'J	.	8d-'J	.	16ALL	.	16aaLL	.	4r	.	8r	.	8r	.	.	.	.	.	.	.
.	.	.	.	.	.	.	.	16G	.	16gg	.	.	.	.	.	.	.	.	.	.	.	.	.
8C'	.	8E'	.	8c-X'^L	.	8e-X'^L	.	16c	.	16cc 16ccc	.	.	.	8B' 8d#X	.	8c-X' 8e-y	.	.	.	.	.	.	.
.	.	.	.	.	.	.	.	16B-JJ	.	16bb-JJ	.	.	.	.	.	.	.	.	.	.	.	.	.
=125	=125	=125	=125	=125	=125	=125	=125	=125	=125	=125	=125	=125	=125	=125	=125	=125	=125	=125	=125	=125	=125	=125	=125
8C'J	.	8E'J	.	8A-X'	.	8c-X'	.	16ALL	.	16aaLL	<	8r	.	8r	.	4r	.	4r	.	4r	.	4r	.
.	.	.	.	.	.	.	.	16G	.	16gg	.	.	.	.	.	.	.	.	.	.	.	.	.
*	*	*	*	*	*	*	*	*	*	*	*	*clefF4	*	*	*	*	*	*	*	*	*	*	*
8BB-X'^L	.	8D'^L	.	8A-'	.	8c-'	.	16B-X	.	16b-X 16bb-X	.	8BBB-y' 8DD	.	8BB-X' 8D	.	.	.	.	.	.	.	.	.
.	.	.	.	.	.	.	.	16AJJ	.	16aaJJ	.	.	.	.	.	.	.	.	.	.	.	.	.
8BB-'J	.	8D'J	.	8A-'	.	8c-'	.	16G 16g	.	16gg	[ sf	4r	.	8r	.	4r	.	4r	.	4r	.	4r	.
.	.	.	.	.	.	.	.	16r	.	16r	.	.	.	.	.	.	.	.	.	.	.	.	.
!	!	!LO:TX:t=P:problem: Cross-Measure Hanging Beams	!	!	!	!	!	!	!	!	!	!	!	!	!	!	!	!	!	!	!	!	!
!LO:TX:t=P:problem: Cross-Measure Hanging Beams	!	!	!	!	!	!	!	!	!	!	!	!	!	!	!	!	!	!	!	!	!	!	!
8C'^L	.	8E'^L	.	8A-'	.	8c-'	.	8r	.	8r	.	.	.	8C' 8E	.	.	.	.	.	.	.	.	.
8BB-'	.	8D'	.	8A-'	.	8c-'	.	4r	.	4r	.	4r	.	4r	.	(16b-XLL 16bb-X	f	(16b-XLL	f	(16bb-XLL	f	(16bbb-XLL	f
.	.	.	.	.	.	.	.	.	.	.	.	.	.	.	.	16aJ 16aa	.	16aJ	.	16aaJ	.	16aaaJ	.
8BB-'	.	8D'	.	8A-'J	.	8c-'J	.	.	.	.	.	.	.	.	.	8gJ) 8gg	.	8gJ)	.	8ggJ)	.	8gggJ)	.
=	=	=	=	=	=	=	=	=	=	=	=	=	=	=	=	=	=	=	=	=	=	=	=
*-	*-	*-	*-	*-	*-	*-	*-	*-	*-	*-	*-	*-	*-	*-	*-	*-	*-	*-	*-	*-	*-	*-	*-
!!!system-decoration: [(s1,s2,s3,s4,s5)]s6{(s7,s8)}[(s9,s10,s11,s12)]
!!!RDF**kern: > = above
!!!RDF**kern: < = below
!!!EED: Daniel Wright
!!!EEV: 2022/08/18
!!!EED2: Jason Lee
!!!EEV2: 2022/10/19
!!!EED3: Bryan Bell
!!!EEV3: 2023/06/01
!!!CDT: 1881/03/25-1945/09/26
!!!CBL: Sînnicolau Mare (Nagyszentmiklós), Romania (Hungary)
!!!CDL: New York, United States
!!!CNT: Hungarian
!!!AGN: Orchestral
!!!MCN: Furtwängler, Wilhelm
!!!MDT: 1927/07/01
!!!MGN: unknown
!!!MLC: Frankfurt, Germany
!!!MPD: 1927
!!!MPN: Bartók, Béla
!!!ODT: 1926
!!!PDT: 1927
!!!excerpt-start-measure: 117
!!!excerpt-end-measure: 121
!!!excerpt-start-time: 2:15
!!!excerpt-end-time: 2:21
!!!EEV: 2020/01/27
!!!Suter_Work_ID: Bar-32
!!!Suter_Example_Number: 337
!!!Suter_Example_ID: Bar-32/16-17/4-1[14]1-5
!!!Premiere_Location: Frankfurt,Germany
!!!Other_Tsigs: 5/8,2/4,3/4,5/8,3/4
!!!Full_Unit_Duration: 9:06
!!!First_Publication_Year: 1927
!!!First_Public_Performance_Year: 1927
!!!Example_Total_Measures: 9
!!!Example_Timestamp_Duration: 10
!!!Example_Start_Tsig_Type: changing
!!!Example_Start_Tsig_Mean_Beat_Rate: 116
!!!Example_Start_Tsig_Beat_Rate: 116
!!!Example_Start_Tsig_Beat: quarter
!!!Example_Start_Tsig: 3/4
!!!Example_Start_Timestamp: 2:15
!!!Example_Start_Tempo_Expression: [Allegro]
!!!Example_Start_Notated_Beat_Rate: [116]
!!!Example_Start_Notated_Beat: [quarter]
!!!Example_Start_Measure: 117
!!!Example_Metadata_Validated: Y
!!!Example_End_Timestamp: 2:25
!!!Example_End_Measure: 125
!!!Example_Dataset: T
!!!Editorial_Comments: Example Start Notated Beat and Example Start Notated Beat Rate [quarter=116] based on most recent notated beat rate (SWFU, m. 38). Example Start Tempo Expression [Allegro] based on most recent notated tempo expression (SWFU, m. 38).
!!!Death_Place: New York,United States
!!!Death_Date: 26-Sep-1945
!!!Changing_Tsig: yes
!!!Birth_Place: Sînnicolau Mare (Nagyszentmiklós),Romania (Hungary)
!!!Birth_Date: 25-Mar-1881
!!!Audio_Example_Quarter_Note_Tempo:
!!!Audio_Example_Duration:
!!!ONB: Converted from MusicXML on 2020/01/27
